X:174
T:Take Five Desmond Solo
C:Paul Desmond
N:TablEdited by Jim Nikora
L:1/8
Q:1/4=162
M:5/4
K:G
{^A}B4 zE/^C/ B,4 | E2 z3/2F/ G6 | eB AG AE z2 G2 | E2 z3/2F/ GB4z | E2 zG2E F2 A2 | 
E2 zG2E FD B,A, | E2 zG2E F2 A2 | E2 zG2E FB3 | z{G}A z4 z4 | zG2F E6 | A7/1d BG | 
z2 Ez7/1 | E2 zF2D E2 A2 | E2 zF2D EF GA | B2 z^c2A B2 e2 | B2 z^c2A Bc de | {=f}^fe f2 d6 | 
e3^c A6 | d3G FD EF GA | BE3 E6 | A,G,2A2A, GF ED | A,G,2A2A, EF G2 | A,G,2A2A, GF ED | 
A,3F2D E3^C | B,6 z4 | z8 z2 | 


